dist/assets/schedule.svg

<svg width="12" height="13" viewBox="0 0 12 13" fill="none" xmlns="http://www.w3.org/2000/svg">
<path id="schedule" d="M7.99545 9.12313L8.85996 8.26594L6.60572 6.0117V2.84606H5.39428V6.52034L7.99545 9.12313ZM6 12.5C5.1708 12.5 4.39283 12.3438 3.66609 12.0315C2.93935 11.7192 2.30282 11.2899 1.75648 10.7435C1.21014 10.1972 0.780811 9.5599 0.468486 8.83167C0.156162 8.10344 0 7.32388 0 6.49299C0 5.6621 0.156162 4.88232 0.468486 4.15367C0.780811 3.42501 1.21014 2.79007 1.75648 2.24883C2.30282 1.70759 2.9401 1.28081 3.66833 0.968486C4.39656 0.656162 5.17612 0.5 6.00701 0.5C6.8379 0.5 7.61771 0.657386 8.34643 0.972158C9.07514 1.28693 9.70903 1.71412 10.2481 2.25373C10.7871 2.79333 11.2139 3.42787 11.5283 4.15734C11.8428 4.88681 12 5.6677 12 6.5C12 7.3292 11.8438 8.10717 11.5315 8.83391C11.2192 9.56065 10.7924 10.1972 10.2512 10.7435C9.70993 11.2899 9.07432 11.7192 8.34433 12.0315C7.61434 12.3438 6.8329 12.5 6 12.5ZM6.00727 11.23C7.31584 11.23 8.43011 10.7682 9.35006 9.8446C10.27 8.92099 10.73 7.80369 10.73 6.4927C10.73 5.18171 10.27 4.06684 9.35009 3.1481C8.43016 2.22937 7.3159 1.77 6.00733 1.77C4.69876 1.77 3.58206 2.22937 2.65723 3.1481C1.73241 4.06684 1.27 5.18171 1.27 6.4927C1.27 7.80369 1.7324 8.92099 2.6572 9.8446C3.582 10.7682 4.69869 11.23 6.00727 11.23Z" fill="#8DA4BF"/>
</svg>

<svg xmlns="http://www.w3.org/2000/svg" width="12" height="13" fill="none"><path fill="#8DA4BF" d="m7.995 9.123.865-.857-2.254-2.254V2.846H5.394V6.52l2.601 2.603ZM6 12.5c-.83 0-1.607-.156-2.334-.469a6.045 6.045 0 0 1-3.198-3.2A5.87 5.87 0 0 1 0 6.494a5.953 5.953 0 0 1 1.756-4.244A6.11 6.11 0 0 1 3.668.969 5.87 5.87 0 0 1 6.007.5c.83 0 1.61.157 2.34.472a6.049 6.049 0 0 1 1.901 1.282c.54.54.966 1.174 1.28 1.903.315.73.472 1.51.472 2.343 0 .83-.156 1.607-.469 2.334a6.117 6.117 0 0 1-1.28 1.91A5.947 5.947 0 0 1 6 12.5Zm.007-1.27c1.309 0 2.423-.462 3.343-1.385.92-.924 1.38-2.041 1.38-3.352s-.46-2.426-1.38-3.345C8.43 2.23 7.316 1.77 6.007 1.77c-1.308 0-2.425.46-3.35 1.378-.925.919-1.387 2.034-1.387 3.345 0 1.31.462 2.428 1.387 3.352.925.923 2.042 1.385 3.35 1.385Z"/></svg>
